src/main/resources/icons/AllIcons/fileTypes/regexp.svg

<!-- Copyright 2000-2021 JetBrains s.r.o. Use of this source code is governed by the Apache 2.0 license that can be found in the LICENSE file. -->
<svg xmlns="http://www.w3.org/2000/svg" width="16" height="16" viewBox="0 0 16 16">
  <g fill="none" fill-rule="evenodd">
    <polygon fill="#9AA7B0" fill-opacity=".8" points="7 1 3 5 7 5"/>
    <path fill="#9AA7B0" fill-opacity=".8" d="M13,8.07349254 C12.9019343,8.06711026 12.803012,8.06386931 12.7033328,8.06386931 C10.2180514,8.06386931 8.2033328,10.0785879 8.2033328,12.5638693 C8.2033328,13.4615629 8.46618976,14.2978629 8.9191343,15 L3,15 L3,6 L8,6 L8,1 L13,1 L13,8.07349254 Z"/>
    <path fill="#231F20" fill-opacity=".7" d="M5,12 L8,12 L8,11 L5,11 L5,12 Z M5,10 L9,10 L9,9 L5,9 L5,10 Z M5,8 L11,8 L11,7 L5,7 L5,8 Z"/>
    <path fill="#40B6E0" d="M13.3329895,11.2864308 L15.3140784,10.1426486 L16.0140784,11.3550842 L14.0329895,12.4988664 L16.0140784,13.6426486 L15.3140784,14.8550842 L13.3329895,13.711302 L13.3329895,15.9988664 L11.9329895,15.9988664 L11.9329895,13.711302 L9.95190061,14.8550842 L9.25190061,13.6426486 L11.2329895,12.4988664 L9.25190061,11.3550842 L9.95190061,10.1426486 L11.9329895,11.2864308 L11.9329895,8.99886641 L13.3329895,8.99886641 L13.3329895,11.2864308 Z"/>
  </g>
</svg>

<svg xmlns="http://www.w3.org/2000/svg" width="16" height="16" viewBox="0 0 16 16"><rect id="frame" width="16" height="16" fill="none"/><g fill="none" fill-rule="evenodd"><path fill="#9AA7B0" fill-opacity=".8" d="M7 1L3 5h4z"/><path fill="#9AA7B0" fill-opacity=".8" d="M13 8.073A4.5 4.5 0 0 0 8.92 15H3V6h5V1h5v7.073z"/><path fill="#231F20" fill-opacity=".7" d="M5 12h3v-1H5v1zm0-2h4V9H5v1zm0-2h6V7H5v1z"/><path fill="#40B6E0" d="M13.333 11.286l1.981-1.143.7 1.212-1.981 1.144 1.981 1.144-.7 1.212-1.981-1.144V16h-1.4V13.71l-1.981 1.144-.7-1.212 1.981-1.144-1.981-1.144.7-1.212 1.981 1.143V9h1.4v2.287z"/></g></svg>
